source/img/icon_mail_btn.svg

<svg xmlns="http://www.w3.org/2000/svg" width="40" height="40" fill="none">
  <circle cx="20" cy="20" r="20" fill="#FFBD30"/>
  <path fill="#161C35" d="M12.0166 15.3253l6.75 4.2304c.2268.1418.5202.209.8154.209s.5886-.0672.8154-.209l6.75-4.2304c.4401-.2762.8559-1.3503.0486-1.3503H11.9689c-.8073 0-.3915 1.0741.0477 1.3503zm15.3351 2.3131l-6.9543 4.2284c-.306.1869-.5202.2089-.8154.2089s-.5094-.022-.8154-.2089c-.306-.1869-6.4197-3.926-6.9192-4.2294-.351-.2142-.3474.0367-.3474.2299v7.6577c0 .441.5094 1.05.9 1.05h14.4c.3906 0 .9-.609.9-1.05v-7.6566c0-.1932.0036-.4442-.3483-.23z"/>
</svg>

<svg width="40" height="40" viewBox="0 0 40 40" fill="none" xmlns="http://www.w3.org/2000/svg">
<circle cx="20" cy="20" r="20" fill="#FFBD30"/>
<path d="M12.0166 15.3253L18.7666 19.5557C18.9934 19.6975 19.2868 19.7647 19.582 19.7647C19.8772 19.7647 20.1706 19.6975 20.3974 19.5557L27.1474 15.3253C27.5875 15.0491 28.0033 13.975 27.196 13.975H11.9689C11.1616 13.975 11.5774 15.0491 12.0166 15.3253ZM27.3517 17.6384L20.3974 21.8668C20.0914 22.0537 19.8772 22.0757 19.582 22.0757C19.2868 22.0757 19.0726 22.0537 18.7666 21.8668C18.4606 21.6799 12.3469 17.9408 11.8474 17.6374C11.4964 17.4232 11.5 17.6741 11.5 17.8673V25.525C11.5 25.966 12.0094 26.575 12.4 26.575H26.8C27.1906 26.575 27.7 25.966 27.7 25.525V17.8684C27.7 17.6752 27.7036 17.4242 27.3517 17.6384Z" fill="#161C35"/>
</svg>
